X:1
T:Title
%%score { ( 1 4 ) | ( 2 3 ) }
L:1/8
Q:1/4=80
M:2/4
K:Eb
V:1 treble nm="Grand Piano"
V:4 treble 
V:2 bass 
V:3 bass 
V:1
 G>F EF | GB cB | E>F GB | F4 | G>F EF | GB cB | z z/ F/ G[A,DF] | [G,E]4 | %8
w: Dr.~Bessey,~arr. * * *||||||||
 [B,DF]>[B,DF] [B,CE][B,DF] | [B,EG][B,FA] [B,EG][B,GB] | [B,F]>[B,DF] [B,CE][B,DF] | %11
w: |||
 [B,EG][B,FA] [B,EG][B,GB] | [G,E]>[A,B,F] [B,EG][B,FA] | [B,GB][Ac] [GB][Ge] | z z/ F/ G[DF] | %15
w: ||||
 E4 | e>c Ac | e>B Gc | [GB]>A GF | E4 |] %20
w: |||||
V:2
 [E,B,E]>[E,A,B,] [E,G,B,][E,A,B,] | [E,B,E][E,G,E] [E,A,E][E,G,E] | B,->[F,B,D] [E,B,E][G,B,E] | %3
 [B,D]4 | [E,B,E]>[E,G,B,] [E,G,B,][E,A,B,] | [E,B,E][E,G,E] [E,A,E][E,G,E] | %6
 [G,B,]>[A,C] [B,E]B,, | E,4 | B,,>B,, B,,B,, | E,E, E,E, | D,>B,, B,,B,, | E,E, E,E, | %12
 E,>E, E,E, | E,[E,B,] [E,B,][E,B,] | [G,B,]>[A,C] [B,E][B,,A,] | [E,G,]4 | [A,CE]4 | [E,B,]3 A | %18
 z z/[K:treble] F/ E[K:bass][A,D] | [E,G,]4 |] %20
V:3
 x4 | x4 | G,2 z2 | x4 | x4 | x4 | x4 | x4 | x4 | x4 | x4 | x4 | x4 | x4 | x4 | x4 | x4 | x4 | %18
 B,,4[K:treble][K:bass] | x4 |] %20
V:4
 x4 | x4 | x4 | x4 | x4 | x4 | E2 z2 | x4 | x4 | x4 | x4 | x4 | x4 | x4 | E2 z2 | x4 | x4 | G2 z2 | %18
 B,4 | x4 |] %20

